X: 1
T: The Bockagh
B: A COLECTION of the most Celebrated Irish Tunes2 p.6b
M: C|
L: 1/8
K: G
(G/A/B) |\
c2B2 (AB)(AG) | TE6 (E/F/G) | TD4 E2G2 | TG6 (G/A/B) |\
c2B2 TA3G | TE6 (E/F/G) | D4 E2TG2 | G4 G2(AB) |
c2B2 c2d2 | (ed)(ef) g2e2 | d2B2 (cB)(AG) | d4- d2g2 |\
d2(cB) (cB)(AG) | TE4- E2G2 | D4 E2TG2 | G4 G2 |]
